svg/media/live_fill.svg

<svg xmlns="http://www.w3.org/2000/svg" width="24" height="24" viewBox="0 0 24 24"><g fill="none" fill-rule="evenodd"><path d="M24,0 L24,24 L0,24 L0,0 L24,0 Z M12.5935,23.2578 L12.5819,23.2595 L12.5109,23.295 L12.4919,23.2987 L12.4767,23.295 L12.4057,23.2595 C12.3958,23.2564 12.387,23.259 12.3821,23.2649 L12.378,23.2758 L12.3609,23.7031 L12.3659,23.7235 L12.3769,23.7357 L12.4805,23.8097 L12.4953,23.8136 L12.5071,23.8097 L12.6107,23.7357 L12.6233,23.7197 L12.6267,23.7031 L12.6096,23.2758 C12.6076,23.2657 12.601,23.2593 12.5935,23.2578 Z M12.8584,23.1453 L12.8445,23.1473 L12.6598,23.2397 L12.6499,23.2499 L12.6472,23.2611 L12.6651,23.6906 L12.6699,23.7034 L12.6784,23.7105 L12.8793,23.8032 C12.8914,23.8069 12.9022,23.803 12.9078,23.7952 L12.9118,23.7812 L12.8777,23.1665 C12.8753,23.1546 12.8674,23.147 12.8584,23.1453 Z M12.143,23.1473 C12.1332,23.1424 12.1222,23.1453 12.1156,23.1526 L12.1099,23.1665 L12.0758,23.7812 C12.0751,23.7927 12.0828,23.8019 12.0926,23.8046 L12.1083,23.8032 L12.3092,23.7105 L12.3186,23.7024 L12.3225,23.6906 L12.3404,23.2611 L12.3372,23.2485 L12.3278,23.2397 L12.143,23.1473 Z"/><path fill="#09244B" d="M16.9497,4.00008 C17.3402,3.60955 17.3402,2.97639 16.9497,2.58586 C16.5591,2.19534 15.926,2.19534 15.5355,2.58586 L11.6464,6.47495 C11.4511,6.67021 11.1345,6.67021 10.9393,6.47495 L8.46439,4.00008 C8.07387,3.60955 7.4407,3.60955 7.05018,4.00008 C6.65965,4.3906 6.65965,5.02376 7.05018,5.41429 L8.63585,6.99996 L5,6.99996 C3.89543,6.99996 3,7.89539 3,8.99996 L3,19 C3,20.1045 3.89543,21 5,21 L19,21 C20.1046,21 21,20.1045 21,19 L21,8.99996 C21,7.89539 20.1046,6.99996 19,6.99996 L13.9498,6.99996 L16.9497,4.00008 Z M9.46307,11.9205 C9.54194,11.2189 10.2731,10.7953 10.9213,11.0776 C11.2758,11.2319 11.9494,11.5449 12.7892,12.0298 C13.6297,12.5151 14.2378,12.9422 14.5485,13.1718 C15.1155,13.5909 15.117,14.435 14.5484,14.8551 C14.2391,15.0836 13.6351,15.507 12.7885,15.9958 C11.9424,16.4843 11.2739,16.7956 10.9212,16.9493 C10.2722,17.2321 9.5419,16.8072 9.4631,16.1066 C9.41985,15.722 9.3543,14.9802 9.3543,14.0134 C9.3543,13.0469 9.41982,12.3052 9.46307,11.9205 Z"/></g></svg>

<svg xmlns="http://www.w3.org/2000/svg" width="24" height="24"><g fill="none" fill-rule="evenodd"><path d="M24 0v24H0V0zM12.594 23.258l-.012.002-.071.035-.02.004-.014-.004-.071-.036c-.01-.003-.019 0-.024.006l-.004.01-.017.428.005.02.01.013.104.074.015.004.012-.004.104-.074.012-.016.004-.017-.017-.427c-.002-.01-.009-.017-.016-.018m.264-.113-.014.002-.184.093-.01.01-.003.011.018.43.005.012.008.008.201.092c.012.004.023 0 .029-.008l.004-.014-.034-.614c-.003-.012-.01-.02-.02-.022m-.715.002a.023.023 0 0 0-.027.006l-.006.014-.034.614c0 .012.007.02.017.024l.015-.002.201-.093.01-.008.003-.011.018-.43-.003-.012-.01-.01z"/><path fill="#09244B" d="M16.95 4a1 1 0 0 0-1.414-1.414l-3.89 3.889a.5.5 0 0 1-.707 0L8.464 4A1 1 0 1 0 7.05 5.414L8.636 7H5a2 2 0 0 0-2 2v10a2 2 0 0 0 2 2h14a2 2 0 0 0 2-2V9a2 2 0 0 0-2-2h-5.05zm-7.487 7.92a1.045 1.045 0 0 1 1.458-.842c.355.154 1.028.467 1.868.952.84.485 1.449.912 1.76 1.142.567.419.568 1.263 0 1.683-.31.229-.914.652-1.76 1.14-.847.49-1.515.8-1.868.954a1.045 1.045 0 0 1-1.458-.842 19.106 19.106 0 0 1-.109-2.094c0-.966.066-1.708.11-2.092"/></g></svg>
